src/components/00-materials/images-raw/Death.svg

<svg width="96" height="96" viewBox="0 0 96 96" fill="none" xmlns="http://www.w3.org/2000/svg">
<path d="M66.6 29.24H55.6V18.24C55.5974 17.5008 55.3026 16.7927 54.7799 16.27C54.2573 15.7474 53.5492 15.4526 52.81 15.45H43.09C42.3501 15.45 41.6404 15.7439 41.1172 16.2671C40.594 16.7903 40.3 17.5 40.3 18.24V29.24H29.3C28.5618 29.2426 27.8547 29.5377 27.3337 30.0607C26.8126 30.5836 26.52 31.2917 26.52 32.0299V41.7999C26.5227 42.5382 26.8178 43.2452 27.3407 43.7663C27.8637 44.2874 28.5718 44.58 29.31 44.58H40.31V77.73C40.3127 78.4691 40.6074 79.1772 41.1301 79.6999C41.6528 80.2225 42.3609 80.5173 43.1 80.52H52.82C53.1864 80.52 53.5492 80.4478 53.8877 80.3076C54.2262 80.1674 54.5338 79.9619 54.7928 79.7028C55.0519 79.4437 55.2574 79.1361 55.3976 78.7976C55.5379 78.4591 55.61 78.0963 55.61 77.73V44.58H66.61C66.9759 44.58 67.3383 44.5077 67.6762 44.3674C68.0141 44.227 68.321 44.0214 68.5793 43.7622C68.8376 43.503 69.0422 43.1953 69.1813 42.8569C69.3204 42.5184 69.3913 42.1559 69.39 41.79V32C69.3795 31.266 69.0813 30.5656 68.5595 30.0494C68.0377 29.5332 67.334 29.2425 66.6 29.24V29.24Z" stroke="#00008F" stroke-width="2" stroke-linecap="round" stroke-linejoin="round"/>
</svg>

<svg width="96" height="96" viewBox="0 0 96 96" fill="none" xmlns="http://www.w3.org/2000/svg"><path d="M66.6 29.24h-11v-11a2.8 2.8 0 00-2.79-2.79h-9.72a2.79 2.79 0 00-2.79 2.79v11h-11a2.79 2.79 0 00-2.78 2.79v9.77a2.79 2.79 0 002.79 2.78h11v33.15a2.8 2.8 0 002.79 2.79h9.72a2.79 2.79 0 002.79-2.79V44.58h11a2.78 2.78 0 002.78-2.79V32a2.8 2.8 0 00-2.79-2.76v0z" stroke="#00008F" stroke-width="2" stroke-linecap="round" stroke-linejoin="round"/></svg>
